X:063
T:May-Pole. WES.063, The 
M:2/4
L:1/8
R:Country Dance
Q:1/4=110
N:rest added in Bar 10
B:T.Westrop’s 120 Country Dances, 1860’s
Z:VMP-R.Greig 2010
K:A
A/B/c/d/ ee|aafz|!accent!e2!accent!c2|{c}(B/A/)B/c/ Az::aafe|aadc|
aagg|(f/a/).g/.f/ (e/d/).c/.B/|A/B/c/d/ ee|aafz|!accent!e2!accent!c2|{c}(B/A/)B/c/ Az :|

